src/asset/img/icon/sun.svg

<svg height="120.4" width="120.4" xmlns="http://www.w3.org/2000/svg"><path d="M.75-60.2H.9l.95.05h.4l5.45.35q20 2.35 34.9 17.25Q57.55-27.6 59.8-7.3q.4 3.55.4 7.3 0 24.95-17.6 42.6-17 16.95-40.75 17.6H0q-24.95 0-42.55-17.6Q-60.2 24.95-60.2 0q0-3.75.4-7.3 2.25-20.3 17.25-35.25Q-24.95-60.2 0-60.2h.75" fill="url(#a)" fill-rule="evenodd" transform="translate(60.2 60.2)"/><defs><radialGradient cx="0" cy="0" gradientTransform="scale(.0745)" gradientUnits="userSpaceOnUse" id="a" r="819.2" spreadMethod="pad"><stop offset=".549" stop-color="#fff"/><stop offset=".937" stop-color="#ffff2f" stop-opacity="0"/></radialGradient></defs></svg>

<?xml version="1.0" encoding="UTF-8" standalone="no"?>
<svg xmlns:xlink="http://www.w3.org/1999/xlink" height="120.4px" width="120.4px" xmlns="http://www.w3.org/2000/svg">
  <g transform="matrix(1.0, 0.0, 0.0, 1.0, 60.2, 60.2)">
    <path d="M0.75 -60.2 L0.9 -60.2 1.85 -60.15 2.25 -60.15 7.7 -59.8 Q27.7 -57.45 42.6 -42.55 57.55 -27.6 59.8 -7.3 60.2 -3.75 60.2 0.0 60.2 24.95 42.6 42.6 25.6 59.55 1.85 60.2 L0.75 60.2 0.6 60.2 0.0 60.2 Q-24.95 60.2 -42.55 42.6 -60.2 24.95 -60.2 0.0 -60.2 -3.75 -59.8 -7.3 -57.55 -27.6 -42.55 -42.55 -24.95 -60.2 0.0 -60.2 L0.75 -60.2" fill="url(#gradient0)" fill-rule="evenodd" stroke="none"/>
  </g>
  <defs>
    <radialGradient cx="0" cy="0" gradientTransform="matrix(0.0745, 0.0, 0.0, 0.0745, 0.0, 0.0)" gradientUnits="userSpaceOnUse" id="gradient0" r="819.2" spreadMethod="pad">
      <stop offset="0.5490196078431373" stop-color="#ffffff"/>
      <stop offset="0.9372549019607843" stop-color="#ffff2f" stop-opacity="0.0"/>
    </radialGradient>
  </defs>
</svg>
